X:1
T:Joy to the World
T:Joy to the World
T:Abuncha Deadguys
C:Abuncha Deadguys
%%score 1 2 3 4
L:1/8
Q:1/4=120
M:2/4
K:C
V:1 treble nm="Flute" snm="Fl."
V:2 treble transpose=-2 nm="Flugelhorn" snm="Flghn."
V:3 treble transpose=-14 nm="Tenor Saxophone" snm="T. Sax."
V:4 treble transpose=-14 nm="Baritone Horn" snm="Bar. Hn."
V:1
 c'2 b>a | g3 f | e2 d2 | c3 g | a3 a | b3 b | c'4- | c'3 c' | c'b ag | (g>f e)c' | c'b ag | %11
 g>f ee | ee ee/f/ | g3 f/e/ | dd dd/e/ | f3 e/d/ | c c'2 a | g>f ef | e2 d2 | c4 |] %20
V:2
[K:D] F2 A>G | F3 G | F2 E2 | D3 A | G3 G | E3 G | F4- | F3 F | FA GF | (F>E D)F | FA GF | F>E DD | %12
 DD DD/E/ | F3 E/D/ | CC CC/D/ | E3 D/C/ | D F2 G | F>E DE | D2 C2 | D4 |] %20
V:3
[K:D] A2 d>d | d3 B | A2 AG | F3 d | d3 d | A3 A | A4- | A3 z | A4- | A4- | A4- | A3 z | z3 A | %13
 AA AA | A4- | A3 A | F A2 d | d3 B | A2 AG | F4 |] %20
V:4
[K:D] D2 D>D | D3 G, | A,2 A,2 | D3 F | G3 G | A3 A | D4- | D3 z | D4- | D4- | D4- | D3 z | z3 D | %13
 DD DD | A3 A, | A,A, A,A, | D3 D | D3 G, | A,2 A,2 | D4 |] %20

